X: 33
T:Dawn
D:Jacky Daly & Seamus Creag
M:C
L:1/8
K:A
A,2 CE DEFD| E2 GB ABcA| df ~f2 edcA| ~B2 AB cAEC |
A,2 CE DEFD| E2 GB ABcA| df ~f2 edcA| ~B2 AB cA A2 :|
|: c2 ec fcec| ABcA BcAF| ~E3 F ABce|fece agae |
| c2 ec fcec| ABcA BcAF| ~E3 F ABcA| dfed cA A2 :|
